images/50547815.svg

<?xml version="1.0" encoding="UTF-8"?>
<svg xmlns="http://www.w3.org/2000/svg" xmlns:xlink="http://www.w3.org/1999/xlink" width="300pt" height="300pt" viewBox="0 0 300 300" version="1.1">
<defs>
<g>
<symbol overflow="visible" id="glyph0-0">
<path style="stroke:none;" d="M 0.75 2.65625 L 0.75 -10.578125 L 8.25 -10.578125 L 8.25 2.65625 Z M 1.59375 1.8125 L 7.40625 1.8125 L 7.40625 -9.734375 L 1.59375 -9.734375 Z M 1.59375 1.8125 "/>
</symbol>
<symbol overflow="visible" id="glyph0-1">
<path style="stroke:none;" d="M 9.65625 -10.09375 L 9.65625 -8.53125 C 9.15625 -9 8.625 -9.347656 8.0625 -9.578125 C 7.5 -9.804688 6.898438 -9.921875 6.265625 -9.921875 C 5.015625 -9.921875 4.054688 -9.535156 3.390625 -8.765625 C 2.734375 -8.003906 2.40625 -6.898438 2.40625 -5.453125 C 2.40625 -4.015625 2.734375 -2.910156 3.390625 -2.140625 C 4.054688 -1.378906 5.015625 -1 6.265625 -1 C 6.898438 -1 7.5 -1.113281 8.0625 -1.34375 C 8.625 -1.570312 9.15625 -1.921875 9.65625 -2.390625 L 9.65625 -0.84375 C 9.144531 -0.488281 8.597656 -0.222656 8.015625 -0.046875 C 7.441406 0.128906 6.832031 0.21875 6.1875 0.21875 C 4.53125 0.21875 3.222656 -0.285156 2.265625 -1.296875 C 1.316406 -2.316406 0.84375 -3.703125 0.84375 -5.453125 C 0.84375 -7.210938 1.316406 -8.597656 2.265625 -9.609375 C 3.222656 -10.628906 4.53125 -11.140625 6.1875 -11.140625 C 6.832031 -11.140625 7.445312 -11.050781 8.03125 -10.875 C 8.613281 -10.695312 9.15625 -10.4375 9.65625 -10.09375 Z M 9.65625 -10.09375 "/>
</symbol>
<symbol overflow="visible" id="glyph0-2">
<path style="stroke:none;" d="M 1.40625 -11.390625 L 2.765625 -11.390625 L 2.765625 0 L 1.40625 0 Z M 1.40625 -11.390625 "/>
</symbol>
<symbol overflow="visible" id="glyph0-3">
<path style="stroke:none;" d="M 8.03125 -10.578125 L 8.03125 -9.140625 C 7.46875 -9.398438 6.9375 -9.597656 6.4375 -9.734375 C 5.9375 -9.867188 5.457031 -9.9375 5 -9.9375 C 4.1875 -9.9375 3.5625 -9.78125 3.125 -9.46875 C 2.6875 -9.15625 2.46875 -8.707031 2.46875 -8.125 C 2.46875 -7.644531 2.613281 -7.28125 2.90625 -7.03125 C 3.195312 -6.789062 3.75 -6.59375 4.5625 -6.4375 L 5.453125 -6.25 C 6.554688 -6.039062 7.367188 -5.671875 7.890625 -5.140625 C 8.421875 -4.609375 8.6875 -3.898438 8.6875 -3.015625 C 8.6875 -1.953125 8.332031 -1.144531 7.625 -0.59375 C 6.914062 -0.0507812 5.875 0.21875 4.5 0.21875 C 3.976562 0.21875 3.425781 0.15625 2.84375 0.03125 C 2.257812 -0.0820312 1.65625 -0.253906 1.03125 -0.484375 L 1.03125 -2 C 1.632812 -1.664062 2.222656 -1.410156 2.796875 -1.234375 C 3.367188 -1.066406 3.9375 -0.984375 4.5 -0.984375 C 5.34375 -0.984375 5.992188 -1.148438 6.453125 -1.484375 C 6.910156 -1.816406 7.140625 -2.289062 7.140625 -2.90625 C 7.140625 -3.445312 6.972656 -3.867188 6.640625 -4.171875 C 6.316406 -4.472656 5.78125 -4.695312 5.03125 -4.84375 L 4.125 -5.03125 C 3.019531 -5.25 2.21875 -5.59375 1.71875 -6.0625 C 1.226562 -6.53125 0.984375 -7.179688 0.984375 -8.015625 C 0.984375 -8.984375 1.320312 -9.742188 2 -10.296875 C 2.6875 -10.859375 3.628906 -11.140625 4.828125 -11.140625 C 5.335938 -11.140625 5.859375 -11.09375 6.390625 -11 C 6.921875 -10.90625 7.46875 -10.765625 8.03125 -10.578125 Z M 8.03125 -10.578125 "/>
</symbol>
<symbol overflow="visible" id="glyph0-4">
<path style="stroke:none;" d="M 1.46875 -10.9375 L 3.46875 -10.9375 L 8.3125 -1.78125 L 8.3125 -10.9375 L 9.75 -10.9375 L 9.75 0 L 7.75 0 L 2.90625 -9.140625 L 2.90625 0 L 1.46875 0 Z M 1.46875 -10.9375 "/>
</symbol>
</g>
</defs>
<g id="surface16257">
<rect x="0" y="0" width="300" height="300" style="fill:rgb(100%,100%,100%);fill-opacity:1;stroke:none;"/>
<path style="fill:none;stroke-width:1.2;stroke-linecap:butt;stroke-linejoin:miter;stroke:rgb(0%,80%,0%);stroke-opacity:1;stroke-miterlimit:10;" d="M 51.972656 214.957031 L 58.824219 198.265625 "/>
<path style="fill:none;stroke-width:1.2;stroke-linecap:butt;stroke-linejoin:miter;stroke:rgb(0%,0%,0%);stroke-opacity:1;stroke-miterlimit:10;" d="M 58.824219 198.265625 L 65.671875 181.574219 "/>
<path style=" stroke:none;fill-rule:nonzero;fill:rgb(100%,100%,100%);fill-opacity:1;" d="M 36.972656 205.957031 L 51.972656 205.957031 L 51.972656 223.957031 L 36.972656 223.957031 Z M 36.972656 205.957031 "/>
<g style="fill:rgb(0%,80%,0%);fill-opacity:1;">
  <use xlink:href="#glyph0-1" x="36.972656" y="219.571289"/>
  <use xlink:href="#glyph0-2" x="47.216797" y="219.571289"/>
</g>
<path style="fill:none;stroke-width:1.2;stroke-linecap:butt;stroke-linejoin:miter;stroke:rgb(0%,0%,0%);stroke-opacity:1;stroke-miterlimit:10;" d="M 65.671875 181.574219 L 43.609375 153.019531 "/>
<path style="fill:none;stroke-width:1.2;stroke-linecap:butt;stroke-linejoin:miter;stroke:rgb(0%,0%,0%);stroke-opacity:1;stroke-miterlimit:10;" d="M 70.183594 173.527344 L 52.535156 150.683594 "/>
<path style="fill:none;stroke-width:1.2;stroke-linecap:butt;stroke-linejoin:miter;stroke:rgb(0%,0%,0%);stroke-opacity:1;stroke-miterlimit:10;" d="M 101.433594 176.746094 L 65.671875 181.574219 "/>
<path style="fill:none;stroke-width:1.2;stroke-linecap:butt;stroke-linejoin:miter;stroke:rgb(0%,0%,0%);stroke-opacity:1;stroke-miterlimit:10;" d="M 43.609375 153.019531 L 57.3125 119.636719 "/>
<path style="fill:none;stroke-width:1.2;stroke-linecap:butt;stroke-linejoin:miter;stroke:rgb(0%,0%,0%);stroke-opacity:1;stroke-miterlimit:10;" d="M 57.3125 119.636719 L 46.28125 105.359375 "/>
<path style="fill:none;stroke-width:1.2;stroke-linecap:butt;stroke-linejoin:miter;stroke:rgb(0%,80%,0%);stroke-opacity:1;stroke-miterlimit:10;" d="M 46.28125 105.359375 L 35.25 91.082031 "/>
<path style="fill:none;stroke-width:1.2;stroke-linecap:butt;stroke-linejoin:miter;stroke:rgb(0%,0%,0%);stroke-opacity:1;stroke-miterlimit:10;" d="M 57.3125 119.636719 L 93.070312 114.808594 "/>
<path style="fill:none;stroke-width:1.2;stroke-linecap:butt;stroke-linejoin:miter;stroke:rgb(0%,0%,0%);stroke-opacity:1;stroke-miterlimit:10;" d="M 62.023438 127.566406 L 90.632812 123.707031 "/>
<path style=" stroke:none;fill-rule:nonzero;fill:rgb(100%,100%,100%);fill-opacity:1;" d="M 20.25 82.082031 L 35.25 82.082031 L 35.25 100.082031 L 20.25 100.082031 Z M 20.25 82.082031 "/>
<g style="fill:rgb(0%,80%,0%);fill-opacity:1;">
  <use xlink:href="#glyph0-1" x="20.25" y="95.696289"/>
  <use xlink:href="#glyph0-2" x="30.494141" y="95.696289"/>
</g>
<path style="fill:none;stroke-width:1.2;stroke-linecap:butt;stroke-linejoin:miter;stroke:rgb(0%,0%,0%);stroke-opacity:1;stroke-miterlimit:10;" d="M 93.070312 114.808594 L 115.132812 143.363281 "/>
<path style="fill:none;stroke-width:1.2;stroke-linecap:butt;stroke-linejoin:miter;stroke:rgb(0%,0%,0%);stroke-opacity:1;stroke-miterlimit:10;" d="M 115.132812 143.363281 L 101.433594 176.746094 "/>
<path style="fill:none;stroke-width:1.2;stroke-linecap:butt;stroke-linejoin:miter;stroke:rgb(0%,0%,0%);stroke-opacity:1;stroke-miterlimit:10;" d="M 105.90625 143.480469 L 94.949219 170.1875 "/>
<path style="fill:none;stroke-width:1.2;stroke-linecap:butt;stroke-linejoin:miter;stroke:rgb(0%,0%,0%);stroke-opacity:1;stroke-miterlimit:10;" d="M 101.433594 176.746094 L 112.464844 191.023438 "/>
<path style="fill:none;stroke-width:1.2;stroke-linecap:butt;stroke-linejoin:miter;stroke:rgb(80%,80%,0%);stroke-opacity:1;stroke-miterlimit:10;" d="M 112.464844 191.023438 L 123.492188 205.304688 "/>
<path style="fill:none;stroke-width:1.2;stroke-linecap:butt;stroke-linejoin:miter;stroke:rgb(80%,80%,0%);stroke-opacity:1;stroke-miterlimit:10;" d="M 123.492188 205.304688 L 141.375 202.890625 "/>
<path style="fill:none;stroke-width:1.2;stroke-linecap:butt;stroke-linejoin:miter;stroke:rgb(0%,0%,0%);stroke-opacity:1;stroke-miterlimit:10;" d="M 141.375 202.890625 L 159.253906 200.476562 "/>
<path style=" stroke:none;fill-rule:nonzero;fill:rgb(100%,100%,100%);fill-opacity:1;" d="M 118.492188 196.304688 L 128.492188 196.304688 L 128.492188 214.304688 L 118.492188 214.304688 Z M 118.492188 196.304688 "/>
<g style="fill:rgb(80%,80%,0%);fill-opacity:1;">
  <use xlink:href="#glyph0-3" x="118.492188" y="209.918945"/>
</g>
<path style="fill:none;stroke-width:1.2;stroke-linecap:butt;stroke-linejoin:miter;stroke:rgb(0%,0%,0%);stroke-opacity:1;stroke-miterlimit:10;" d="M 159.253906 200.476562 L 181.316406 229.03125 "/>
<path style="fill:none;stroke-width:1.2;stroke-linecap:butt;stroke-linejoin:miter;stroke:rgb(0%,0%,0%);stroke-opacity:1;stroke-miterlimit:10;" d="M 159.253906 200.476562 L 172.953125 167.09375 "/>
<path style="fill:none;stroke-width:1.2;stroke-linecap:butt;stroke-linejoin:miter;stroke:rgb(0%,0%,0%);stroke-opacity:1;stroke-miterlimit:10;" d="M 168.480469 200.359375 L 179.4375 173.652344 "/>
<path style="fill:none;stroke-width:1.2;stroke-linecap:butt;stroke-linejoin:miter;stroke:rgb(0%,0%,0%);stroke-opacity:1;stroke-miterlimit:10;" d="M 181.316406 229.03125 L 217.074219 224.203125 "/>
<path style="fill:none;stroke-width:1.2;stroke-linecap:butt;stroke-linejoin:miter;stroke:rgb(0%,0%,0%);stroke-opacity:1;stroke-miterlimit:10;" d="M 183.753906 220.132812 L 212.363281 216.273438 "/>
<path style="fill:none;stroke-width:1.2;stroke-linecap:butt;stroke-linejoin:miter;stroke:rgb(0%,0%,0%);stroke-opacity:1;stroke-miterlimit:10;" d="M 217.074219 224.203125 L 230.773438 190.820312 "/>
<path style="fill:none;stroke-width:1.2;stroke-linecap:butt;stroke-linejoin:miter;stroke:rgb(0%,0%,0%);stroke-opacity:1;stroke-miterlimit:10;" d="M 230.773438 190.820312 L 219.746094 176.542969 "/>
<path style="fill:none;stroke-width:1.2;stroke-linecap:butt;stroke-linejoin:miter;stroke:rgb(0%,0%,100%);stroke-opacity:1;stroke-miterlimit:10;" d="M 219.746094 176.542969 L 208.714844 162.265625 "/>
<path style="fill:none;stroke-width:1.2;stroke-linecap:butt;stroke-linejoin:miter;stroke:rgb(0%,0%,100%);stroke-opacity:1;stroke-miterlimit:10;" d="M 264.75 178.664062 L 247.761719 184.742188 "/>
<path style="fill:none;stroke-width:1.2;stroke-linecap:butt;stroke-linejoin:miter;stroke:rgb(0%,0%,0%);stroke-opacity:1;stroke-miterlimit:10;" d="M 247.761719 184.742188 L 230.773438 190.820312 "/>
<path style="fill:none;stroke-width:1.2;stroke-linecap:butt;stroke-linejoin:miter;stroke:rgb(0%,0%,100%);stroke-opacity:1;stroke-miterlimit:10;" d="M 258.492188 171.886719 L 244.902344 176.75 "/>
<path style="fill:none;stroke-width:1.2;stroke-linecap:butt;stroke-linejoin:miter;stroke:rgb(0%,0%,0%);stroke-opacity:1;stroke-miterlimit:10;" d="M 244.902344 176.75 L 231.3125 181.609375 "/>
<path style="fill:none;stroke-width:1.2;stroke-linecap:butt;stroke-linejoin:miter;stroke:rgb(0%,0%,100%);stroke-opacity:1;stroke-miterlimit:10;" d="M 208.714844 162.265625 L 190.832031 164.679688 "/>
<path style="fill:none;stroke-width:1.2;stroke-linecap:butt;stroke-linejoin:miter;stroke:rgb(0%,0%,0%);stroke-opacity:1;stroke-miterlimit:10;" d="M 190.832031 164.679688 L 172.953125 167.09375 "/>
<path style="fill:none;stroke-width:1.2;stroke-linecap:butt;stroke-linejoin:miter;stroke:rgb(0%,0%,100%);stroke-opacity:1;stroke-miterlimit:10;" d="M 208.714844 162.265625 L 218.882812 147.363281 "/>
<path style="fill:none;stroke-width:1.2;stroke-linecap:butt;stroke-linejoin:miter;stroke:rgb(0%,0%,0%);stroke-opacity:1;stroke-miterlimit:10;" d="M 218.882812 147.363281 L 229.054688 132.460938 "/>
<path style=" stroke:none;fill-rule:nonzero;fill:rgb(100%,100%,100%);fill-opacity:1;" d="M 203.714844 153.265625 L 214.714844 153.265625 L 214.714844 171.265625 L 203.714844 171.265625 Z M 203.714844 153.265625 "/>
<g style="fill:rgb(0%,0%,100%);fill-opacity:1;">
  <use xlink:href="#glyph0-4" x="203.714844" y="166.879883"/>
</g>
<path style="fill:none;stroke-width:1.2;stroke-linecap:butt;stroke-linejoin:miter;stroke:rgb(0%,0%,0%);stroke-opacity:1;stroke-miterlimit:10;" d="M 229.054688 132.460938 L 246.371094 137.527344 "/>
<path style="fill:none;stroke-width:1.2;stroke-linecap:butt;stroke-linejoin:miter;stroke:rgb(0%,0%,100%);stroke-opacity:1;stroke-miterlimit:10;" d="M 246.371094 137.527344 L 263.6875 142.59375 "/>
<path style="fill:none;stroke-width:1.2;stroke-linecap:butt;stroke-linejoin:miter;stroke:rgb(0%,0%,0%);stroke-opacity:1;stroke-miterlimit:10;" d="M 230.132812 141.621094 L 243.984375 145.675781 "/>
<path style="fill:none;stroke-width:1.2;stroke-linecap:butt;stroke-linejoin:miter;stroke:rgb(0%,0%,100%);stroke-opacity:1;stroke-miterlimit:10;" d="M 243.984375 145.675781 L 257.839844 149.730469 "/>
<path style="fill:none;stroke-width:1.2;stroke-linecap:butt;stroke-linejoin:miter;stroke:rgb(0%,0%,0%);stroke-opacity:1;stroke-miterlimit:10;" d="M 229.054688 132.460938 L 216.898438 98.484375 "/>
<path style="fill:none;stroke-width:1.2;stroke-linecap:butt;stroke-linejoin:miter;stroke:rgb(0%,0%,100%);stroke-opacity:1;stroke-miterlimit:10;" d="M 263.6875 142.59375 L 264.75 178.664062 "/>
<path style=" stroke:none;fill-rule:nonzero;fill:rgb(100%,100%,100%);fill-opacity:1;" d="M 258.6875 133.59375 L 269.6875 133.59375 L 269.6875 151.59375 L 258.6875 151.59375 Z M 258.6875 133.59375 "/>
<g style="fill:rgb(0%,0%,100%);fill-opacity:1;">
  <use xlink:href="#glyph0-4" x="258.6875" y="147.208008"/>
</g>
<path style=" stroke:none;fill-rule:nonzero;fill:rgb(100%,100%,100%);fill-opacity:1;" d="M 259.75 169.664062 L 270.75 169.664062 L 270.75 187.664062 L 259.75 187.664062 Z M 259.75 169.664062 "/>
<g style="fill:rgb(0%,0%,100%);fill-opacity:1;">
  <use xlink:href="#glyph0-4" x="259.75" y="183.27832"/>
</g>
<path style="fill:none;stroke-width:1.2;stroke-linecap:butt;stroke-linejoin:miter;stroke:rgb(0%,0%,0%);stroke-opacity:1;stroke-miterlimit:10;" d="M 216.898438 98.484375 L 240.242188 70.96875 "/>
<path style="fill:none;stroke-width:1.2;stroke-linecap:butt;stroke-linejoin:miter;stroke:rgb(0%,0%,0%);stroke-opacity:1;stroke-miterlimit:10;" d="M 216.898438 98.484375 L 181.394531 92.023438 "/>
</g>
</svg>

<svg xmlns="http://www.w3.org/2000/svg" xmlns:xlink="http://www.w3.org/1999/xlink" width="300pt" height="300pt" viewBox="0 0 300 300"><defs><symbol overflow="visible"><path d="M.75 2.656v-13.234h7.5V2.656zm.844-.844h5.812V-9.733H1.594zm0 0"/></symbol><symbol overflow="visible" id="a"><path d="M9.656-10.094v1.563c-.5-.47-1.03-.818-1.594-1.048-.562-.227-1.164-.344-1.796-.344-1.25 0-2.21.387-2.875 1.156-.656.762-.984 1.868-.984 3.313 0 1.437.328 2.543.985 3.312C4.056-1.38 5.017-1 6.267-1c.632 0 1.234-.113 1.796-.344.563-.226 1.094-.578 1.594-1.047v1.546c-.51.356-1.058.62-1.64.797C7.44.13 6.832.22 6.187.22c-1.656 0-2.964-.505-3.92-1.517C1.316-2.317.843-3.703.843-5.453c0-1.758.472-3.145 1.422-4.156.957-1.02 2.265-1.53 3.921-1.53.645 0 1.258.09 1.844.265.583.18 1.126.438 1.626.78zm0 0"/></symbol><symbol overflow="visible" id="b"><path d="M1.406-11.39h1.36V0h-1.36zm0 0"/></symbol><symbol overflow="visible" id="c"><path d="M8.03-10.578v1.437C7.47-9.4 6.94-9.6 6.44-9.735c-.5-.133-.98-.204-1.438-.204-.813 0-1.438.157-1.875.47-.438.312-.656.76-.656 1.343 0 .48.143.844.436 1.094.29.24.844.436 1.656.593l.89.187c1.103.21 1.915.578 2.44 1.11.53.53.795 1.242.795 2.124 0 1.063-.355 1.87-1.062 2.422C6.915-.05 5.875.22 4.5.22 3.977.22 3.426.155 2.844.03 2.258-.08 1.656-.253 1.03-.483V-2c.603.336 1.193.59 1.767.766.57.168 1.14.25 1.703.25.844 0 1.492-.164 1.953-.5.457-.332.688-.805.688-1.422 0-.54-.167-.96-.5-1.266-.324-.3-.86-.523-1.61-.672l-.905-.187C3.02-5.25 2.22-5.595 1.72-6.063 1.226-6.532.983-7.18.983-8.017c0-.968.336-1.726 1.016-2.28.688-.563 1.63-.845 2.828-.845.508 0 1.03.046 1.563.14.532.094 1.08.234 1.64.422zm0 0"/></symbol><symbol overflow="visible" id="d"><path d="M1.47-10.938h2L8.31-1.78v-9.158H9.75V0h-2L2.906-9.14V0H1.47zm0 0"/></symbol></defs><g><path fill="#fff" d="M0 0h300v300H0z"/><path d="M51.973 214.957l6.85-16.69" stroke-width="1.2" stroke="#0c0" stroke-miterlimit="10" fill="none"/><path d="M58.824 198.266l6.848-16.692" stroke-width="1.2" stroke="#000" stroke-miterlimit="10" fill="none"/><path d="M36.973 205.957h15v18h-15zm0 0" fill="#fff"/><g fill="#0c0"><use xlink:href="#a" x="36.973" y="219.571"/><use xlink:href="#b" x="47.217" y="219.571"/></g><path d="M65.672 181.574L43.61 153.02M70.184 173.527l-17.65-22.843M101.434 176.746l-35.762 4.828M43.61 153.02l13.703-33.383M57.313 119.637L46.28 105.36" stroke-width="1.2" stroke="#000" stroke-miterlimit="10" fill="none"/><path d="M46.28 105.36L35.25 91.08" stroke-width="1.2" stroke="#0c0" stroke-miterlimit="10" fill="none"/><path d="M57.313 119.637l35.757-4.828M62.023 127.566l28.61-3.86" stroke-width="1.2" stroke="#000" stroke-miterlimit="10" fill="none"/><path d="M20.25 82.082h15v18h-15zm0 0" fill="#fff"/><g fill="#0c0"><use xlink:href="#a" x="20.25" y="95.696"/><use xlink:href="#b" x="30.494" y="95.696"/></g><path d="M93.07 114.81l22.063 28.553M115.133 143.363l-13.7 33.383M105.906 143.48L94.95 170.188M101.434 176.746l11.03 14.277" stroke-width="1.2" stroke="#000" stroke-miterlimit="10" fill="none"/><path d="M112.465 191.023l11.027 14.282M123.492 205.305l17.883-2.414" stroke-width="1.2" stroke="#cc0" stroke-miterlimit="10" fill="none"/><path d="M141.375 202.89l17.88-2.413" stroke-width="1.2" stroke="#000" stroke-miterlimit="10" fill="none"/><path d="M118.492 196.305h10v18h-10zm0 0" fill="#fff"/><use xlink:href="#c" x="118.492" y="209.919" fill="#cc0"/><path d="M159.254 200.477l22.062 28.554M159.254 200.477l13.7-33.383M168.48 200.36l10.958-26.708M181.316 229.03l35.758-4.827M183.754 220.133l28.61-3.86M217.074 224.203l13.7-33.383M230.773 190.82l-11.027-14.277" stroke-width="1.2" stroke="#000" stroke-miterlimit="10" fill="none"/><path d="M219.746 176.543l-11.03-14.277M264.75 178.664l-16.988 6.078" stroke-width="1.2" stroke="#00f" stroke-miterlimit="10" fill="none"/><path d="M247.762 184.742l-16.99 6.078" stroke-width="1.2" stroke="#000" stroke-miterlimit="10" fill="none"/><path d="M258.492 171.887l-13.59 4.863" stroke-width="1.2" stroke="#00f" stroke-miterlimit="10" fill="none"/><path d="M244.902 176.75l-13.59 4.86" stroke-width="1.2" stroke="#000" stroke-miterlimit="10" fill="none"/><path d="M208.715 162.266l-17.883 2.414" stroke-width="1.2" stroke="#00f" stroke-miterlimit="10" fill="none"/><path d="M190.832 164.68l-17.88 2.414" stroke-width="1.2" stroke="#000" stroke-miterlimit="10" fill="none"/><path d="M208.715 162.266l10.168-14.903" stroke-width="1.2" stroke="#00f" stroke-miterlimit="10" fill="none"/><path d="M218.883 147.363l10.172-14.902" stroke-width="1.2" stroke="#000" stroke-miterlimit="10" fill="none"/><path d="M203.715 153.266h11v18h-11zm0 0" fill="#fff"/><use xlink:href="#d" x="203.715" y="166.88" fill="#00f"/><path d="M229.055 132.46l17.316 5.067" stroke-width="1.2" stroke="#000" stroke-miterlimit="10" fill="none"/><path d="M246.37 137.527l17.317 5.067" stroke-width="1.2" stroke="#00f" stroke-miterlimit="10" fill="none"/><path d="M230.133 141.62l13.85 4.056" stroke-width="1.2" stroke="#000" stroke-miterlimit="10" fill="none"/><path d="M243.984 145.676l13.856 4.054" stroke-width="1.2" stroke="#00f" stroke-miterlimit="10" fill="none"/><path d="M229.055 132.46l-12.157-33.976" stroke-width="1.2" stroke="#000" stroke-miterlimit="10" fill="none"/><path d="M263.688 142.594l1.062 36.07" stroke-width="1.2" stroke="#00f" stroke-miterlimit="10" fill="none"/><path d="M258.688 133.594h11v18h-11zm0 0" fill="#fff"/><use xlink:href="#d" x="258.688" y="147.208" fill="#00f"/><path d="M259.75 169.664h11v18h-11zm0 0" fill="#fff"/><use xlink:href="#d" x="259.75" y="183.278" fill="#00f"/><path d="M216.898 98.484l23.344-27.515M216.898 98.484l-35.503-6.46" stroke-width="1.2" stroke="#000" stroke-miterlimit="10" fill="none"/></g></svg>
